X:59
T:Ships Are Sailing
S:Bernie Waugh
R:Reel
M:2/4
L:1/16
K:E Dorian
|:\
"Em"Beed Bc~dB|"D"ADFD AD~FD|"C"~EDEF GFGA|"Bm"Beef gfed|
"Em"Beed Bc~dB|"D"ADFD AD~FD|"C"EDEF "Bm"GFGA|1\
"Em"Be~ed e4:|2\
"Em"Be~ed e2||
|:ef|\
"Em"~gfga bgeg|"D"~fefg afdf|"C"~gfga bgeg|"D"fedf "A"e2ef|
"Em"gfga bgeg|"D"fefg afdf|"C"gb2g "Bm"f2af|1\
"C"egfa "Em"g2:|2\
"C"egfg gfed|]

